X:169
T:Stoney Steps
O:No 169 William Clarke of Feltwell
M:C
L:1/8
K:G
N: Transcribed M Humphreys May 2010
N:Bar line missing Bar 3-4 in MS
GDBG dBef| gdBd GFED| ecBc A2 AB| cABG GFED|GDBG dBef| gdBd GFED| ecBc A2 AB | cAGF G4:||:
DEFG ABcA| BcdG GFED| E(F/G/) F (G/A/) G2 e(f/g/) | fed^c d2 (ef/g/)|/!
fdBd ecAc| BcdG GFED| ecBc A2  AB| cAGF G4:||

